images/pages/tour/tour-live-trade.svg

<svg xmlns="http://www.w3.org/2000/svg" width="72" height="43.833" viewBox="0 0 72 43.833"><path fill="#fff" d="M0 12.116h72v31.717H0V12.116z"/><path fill="#818181" d="M0 12.116h72v.182H0v-.182M0 43.65h72v.183H0v-.184m0-31.534h.182v31.717H0V12.116m71.818 0H72v31.717h-.182V12.116"/><text transform="translate(13.307 17.401)" fill="#010101" font-family="'Arial'" font-weight="bold" font-size="3.281">Stays Between</text><text transform="translate(9.388 23.782)" fill="#010101" font-family="'Arial'" font-weight="bold" font-size="2.917">GB</text><text transform="translate(13.763 23.782)" fill="#010101" font-family="'Arial'" font-weight="bold" font-size="2.917">P</text><text transform="translate(16.496 23.782)" fill="#010101" font-family="'Arial'" font-weight="bold" font-size="4.01">3</text><text transform="translate(18.684 22.141)" fill="#010101" font-family="'Arial'" font-weight="bold" font-size="2.552">.97</text><path fill="#2F8942" d="M6.197 25.24H24.06c.402 0 .73.325.73.728v4.738c0 .402-.328.73-.73.73H6.197c-.402 0-.73-.328-.73-.73v-4.738c.002-.403.328-.73.73-.73"/><text transform="translate(8.202 29.248)" fill="#fff" font-family="'Arial'" font-weight="bold" font-size="2.552">PURCHASE</text><path fill="#E4E4E4" d="M.182 39.64h71.636v4.01H.182v-4.01"/><text transform="translate(17.135 42.555)" fill="#676767" font-family="'Arial'" font-size="2.37">Net profit: GB</text><text transform="translate(31.488 42.555)" fill="#676767" font-family="'Arial'" font-size="2.37">P</text><text transform="translate(33.026 42.555)" fill="#676767" font-family="'Arial'" font-size="2.37">6.03 | Return: 152%</text><path fill="none" d="M32.08 20.318H70.18V31.62H32.08V20.318z"/><path fill="#29ABE2" d="M3.463 17.74h6.563v-2.378H3.463v2.38zm.314-1.095h.703l.813-1.227.957 1.416.976-1.256.86.97h.764l-.61-.608h.618l.81.81-.83.827h-.617l.588-.588H7.89l-.642-.728-1.02 1.316-.93-1.375-.583.88h-.938v-.438zm-.314 1.387h6.563v1.74H3.463v-1.74zm0-4.823h6.563v1.86H3.463v-1.86z"/><path fill="#CAC8BA" d="M19.823 13.21h-.25V8.34h.25z"/><path fill="#FEFDEC" d="M10.767 1.87H34.42v6.378H10.767v-6.38z"/><path fill="#CAC8BA" d="M34.33 1.96v6.198H10.856V1.96H34.33m.182-.182H10.676V8.34h23.836V1.778z"/><text transform="translate(12.727 5.942)" fill="#010101" font-family="'Arial'" font-size="2.552">Live trading price</text><path fill="none" d="M32.08 19.96H70.5v12.25H32.08zM32.08 19.6h35.167v16.75H32.08z"/><text transform="translate(32.081 21.389)"><tspan x="0" y="0" font-family="'Arial'" font-size="2.5">GB</tspan><tspan x="3.611" y="0" font-family="'Arial'" font-size="2.5">P</tspan><tspan x="5.929" y="0" font-family="'Arial'" font-weight="bold" font-size="2.5">10</tspan><tspan x="8.71" y="0" font-family="'Arial'" font-size="2.5">payout if</tspan><tspan x="19.412" y="0" font-family="'Arial'" font-size="2.5">AUD/JP</tspan><tspan x="28.302" y="0" font-family="'Arial'" font-size="2.5">Y</tspan><tspan x="0" y="3" font-family="'Arial'" font-weight="bold" font-size="2.5">stays strictly between 91.783</tspan><tspan x="0" y="6" font-family="'Arial'" font-size="2.5">and</tspan><tspan x="4.866" y="6" font-family="'Arial'" font-weight="bold" font-size="2.5">94.095</tspan><tspan x="12.514" y="6" font-family="'Arial'" font-size="2.5">before close</tspan><tspan x="0" y="9" font-family="'Arial'" font-size="2.5">(91.783) on 31-Mar-14</tspan></text></svg>

<?xml version="1.0" encoding="utf-8"?>
<!-- Generator: Adobe Illustrator 14.0.0, SVG Export Plug-In . SVG Version: 6.00 Build 43363)  -->
<!DOCTYPE svg PUBLIC "-//W3C//DTD SVG 1.1//EN" "http://www.w3.org/Graphics/SVG/1.1/DTD/svg11.dtd">
<svg version="1.1" id="Layer_1" xmlns="http://www.w3.org/2000/svg" xmlns:xlink="http://www.w3.org/1999/xlink" x="0px" y="0px"
	 width="72px" height="43.833px" viewBox="0 0 72 43.833" enable-background="new 0 0 72 43.833" xml:space="preserve">
<g>
	<path fill="#FFFFFF" d="M0,12.116h72v31.717H0V12.116z"/>
	<path fill="#818181" d="M0,12.116h72v0.182H0V12.116 M0,43.649h72v0.184H0V43.649 M0,12.116h0.182v31.717H0V12.116 M71.818,12.116
		H72v31.717h-0.182V12.116"/>
	<text transform="matrix(1 0 0 1 13.3066 17.4014)" fill="#010101" font-family="'Arial'" font-weight="bold"  font-size="3.281">Stays Between</text>
	<text transform="matrix(1 0 0 1 9.3877 23.7817)" fill="#010101" font-family="'Arial'" font-weight="bold"  font-size="2.9165">GB</text>
	<text transform="matrix(1 0 0 1 13.7627 23.7817)" fill="#010101" font-family="'Arial'" font-weight="bold"  font-size="2.9165">P</text>
	<text transform="matrix(1 0 0 1 16.4961 23.7817)" fill="#010101" font-family="'Arial'" font-weight="bold"  font-size="4.0101">3</text>
	<text transform="matrix(1 0 0 1 18.6836 22.1406)" fill="#010101" font-family="'Arial'" font-weight="bold"  font-size="2.5519">.97</text>
	<path fill="#2F8942" d="M6.197,25.239H24.06c0.402,0,0.729,0.326,0.729,0.729v4.738c0,0.402-0.327,0.729-0.729,0.729H6.197
		c-0.402,0-0.729-0.327-0.729-0.729v-4.738C5.469,25.565,5.795,25.239,6.197,25.239"/>
	<text transform="matrix(1 0 0 1 8.2021 29.2485)" fill="#FFFFFF" font-family="'Arial'" font-weight="bold"  font-size="2.5519">PURCHASE</text>
	<path fill="#E4E4E4" d="M0.182,39.639h71.636v4.011H0.182V39.639"/>
	<text transform="matrix(1 0 0 1 17.1348 42.5552)" fill="#676767" font-family="'Arial'" font-size="2.3696">Net profit: GB</text>
	<text transform="matrix(1 0 0 1 31.4883 42.5552)" fill="#676767" font-family="'Arial'" font-size="2.3696">P</text>
	<text transform="matrix(1 0 0 1 33.0264 42.5552)" fill="#676767" font-family="'Arial'" font-size="2.3696"> 6.03 | Return: 152%</text>
	<path fill="none" d="M32.081,20.318h38.097V31.62H32.081V20.318z"/>
	<path fill="#29ABE2" d="M3.463,17.741h6.563v-2.379H3.463V17.741z M3.777,16.645H4.48l0.813-1.227l0.957,1.416l0.976-1.256
		l0.86,0.971H8.85L8.239,15.94h0.619l0.809,0.809l-0.828,0.828H8.221l0.587-0.588H7.891l-0.643-0.727l-1.021,1.316l-0.93-1.375
		l-0.582,0.879H3.777V16.645L3.777,16.645z M3.463,18.032h6.563v1.739H3.463V18.032z M3.463,13.209h6.563v1.861H3.463V13.209z"/>
	<g>
		<polygon fill="#CAC8BA" points="19.823,13.209 19.573,13.209 19.573,8.34 19.823,8.34 		"/>
	</g>
	<path fill="#FEFDEC" d="M10.767,1.869H34.42v6.379H10.767V1.869z"/>
	<path fill="#CAC8BA" d="M34.329,1.96v6.198H10.857V1.96H34.329 M34.512,1.778H10.676V8.34h23.836V1.778z"/>
	<text transform="matrix(1 0 0 1 12.7275 5.9424)" fill="#010101" font-family="'Arial'" font-size="2.5519">Live trading price</text>
	<rect x="32.081" y="19.959" fill="none" width="38.417" height="12.25"/>
	<rect x="32.081" y="19.599" fill="none" width="35.166" height="16.75"/>
	<text transform="matrix(1 0 0 1 32.0811 21.3892)"><tspan x="0" y="0" font-family="'Arial'" font-size="2.5">GB</tspan><tspan x="3.611" y="0" font-family="'Arial'" font-size="2.5">P</tspan><tspan x="5.234" y="0" font-family="'Arial'" font-size="2.5"> </tspan><tspan x="5.929" y="0" font-family="'Arial'" font-weight="bold"  font-size="2.5">10</tspan><tspan x="8.71" y="0" font-family="'Arial'" font-size="2.5"> payout if</tspan><tspan x="18.855" y="0" font-family="'Arial'" font-size="2.5"> </tspan><tspan x="19.412" y="0" font-family="'Arial'" font-size="2.5">AUD/JP</tspan><tspan x="28.302" y="0" font-family="'Arial'" font-size="2.5">Y</tspan><tspan x="29.924" y="0" font-family="'Arial'" font-size="2.5"> </tspan><tspan x="0" y="3" font-family="'Arial'" font-weight="bold"  font-size="2.5">stays strictly between 91.783 </tspan><tspan x="0" y="6" font-family="'Arial'" font-size="2.5">and </tspan><tspan x="4.866" y="6" font-family="'Arial'" font-weight="bold"  font-size="2.5">94.095</tspan><tspan x="12.514" y="6" font-family="'Arial'" font-size="2.5"> before close </tspan><tspan x="0" y="9" font-family="'Arial'" font-size="2.5">(91.783) on 31-Mar-14</tspan></text>
</g>
</svg>
